;FLAVOR:Marlin
;TIME:8314
;Filament used: 3.14235m
;Layer height: 0.16
;MINX:82.2
;MINY:97.2
;MINZ:0.2
;MAXX:137.8
;MAXY:122.8
;MAXZ:62.28
;POSTPROCESSED
;Generated with Cura_SteamEngine 4.13.1
M140 S75
M105
M190 S75
M104 S245
M105
M109 S245
M82 ;absolute extrusion mode
; Ender 3 Custom Start G-code
G92 E0 ; Reset Extruder
G28 ; Home all axes
G1 Z2.0 F3000 ; Move Z Axis up little to prevent scratching of Heat Bed
G1 X0.1 Y20 Z0.3 F5000.0 ; Move to start position
G1 X0.1 Y200.0 Z0.3 F1500.0 E15 ; Draw the first line
G1 X0.4 Y200.0 Z0.3 F5000.0 ; Move to side a little
G1 X0.4 Y20 Z0.3 F1500.0 E30 ; Draw the second line
G92 E0 ; Reset Extruder
G1 Z2.0 F3000 ; Move Z Axis up little to prevent scratching of Heat Bed
G1 X5 Y20 Z0.3 F5000.0 ; Move over to prevent blob squish
G92 E0
G92 E0
G1 F1500 E-6.5
;LAYER_COUNT:389
;LAYER:0
M107
G0 F6000 X85.188 Y98.955 Z0.2
;TYPE:SKIRT
G1 F1500 E0
G1 F1200 X85.824 Y98.488 E0.02624
G1 X86.504 Y98.087 E0.0525
G1 X87.222 Y97.757 E0.07878
G1 X87.969 Y97.502 E0.10504
G1 X88.738 Y97.323 E0.1313
G1 X89.522 Y97.223 E0.15758
G1 X90.117 Y97.2 E0.17739
G1 X129.883 Y97.2 E1.50001
G1 X130.672 Y97.24 E1.52629
G1 X131.452 Y97.359 E1.55253
G1 X132.217 Y97.557 E1.57881
G1 X132.957 Y97.831 E1.60506
G1 X133.666 Y98.179 E1.63133
G1 X134.337 Y98.597 E1.65762
G1 X134.961 Y99.08 E1.68387
G1 X135.398 Y99.485 E1.70368
G1 X135.515 Y99.602 E1.70919
G1 X136.045 Y100.188 E1.73547
G1 X136.512 Y100.824 E1.76171
G1 X136.913 Y101.504 E1.78797
G1 X137.243 Y102.222 E1.81425
G1 X137.498 Y102.969 E1.8405
G1 X137.677 Y103.738 E1.86676
G1 X137.777 Y104.522 E1.89305
G1 X137.8 Y105.117 E1.91285
G1 X137.8 Y114.883 E2.23767
G1 X137.76 Y115.672 E2.26395
G1 X137.641 Y116.452 E2.29019
G1 X137.443 Y117.217 E2.31647
G1 X137.169 Y117.957 E2.34272
G1 X136.821 Y118.666 E2.36899
G1 X136.403 Y119.337 E2.39528
G1 X135.92 Y119.961 E2.42153
G1 X135.515 Y120.398 E2.44134
G1 X135.398 Y120.515 E2.44685
G1 X134.812 Y121.045 E2.47313
G1 X134.176 Y121.512 E2.49937
G1 X133.496 Y121.913 E2.52563
G1 X132.778 Y122.243 E2.55191
G1 X132.031 Y122.498 E2.57816
G1 X131.262 Y122.677 E2.60442
G1 X130.478 Y122.777 E2.63071
G1 X129.883 Y122.8 E2.65051
G1 X90.117 Y122.8 E3.97314
G1 X89.328 Y122.76 E3.99941
G1 X88.548 Y122.641 E4.02566
G1 X87.783 Y122.443 E4.05194
G1 X87.043 Y122.169 E4.07818
G1 X86.334 Y121.821 E4.10445
G1 X85.663 Y121.403 E4.13075
G1 X85.039 Y120.92 E4.15699
G1 X84.602 Y120.515 E4.17681
G1 X84.485 Y120.398 E4.18231
G1 X83.955 Y119.812 E4.20859
G1 X83.488 Y119.176 E4.23484
G1 X83.087 Y118.496 E4.26109
G1 X82.757 Y117.778 E4.28737
G1 X82.502 Y117.031 E4.31363
G1 X82.323 Y116.262 E4.33989
G1 X82.223 Y115.478 E4.36618
G1 X82.2 Y114.883 E4.38598
G1 X82.2 Y105.117 E4.7108
G1 X82.24 Y104.328 E4.73707
G1 X82.359 Y103.548 E4.76332
G1 X82.557 Y102.783 E4.7896
G1 X82.831 Y102.043 E4.81585
G1 X83.179 Y101.334 E4.84211
G1 X83.597 Y100.663 E4.86841
G1 X84.08 Y100.039 E4.89465
G1 X84.485 Y99.602 E4.91447
G1 X84.602 Y99.485 E4.91997
G1 X85.188 Y98.955 E4.94625
G0 F6000 X85.456 Y99.253
G1 F1200 X86.078 Y98.8 E4.97185
G1 X86.743 Y98.414 E4.99742
G1 X87.445 Y98.099 E5.02301
G1 X88.176 Y97.859 E5.0486
G1 X88.927 Y97.696 E5.07416
G1 X89.692 Y97.612 E5.09976
G1 X90.117 Y97.6 E5.1139
G1 X129.883 Y97.6 E6.43652
G1 X130.651 Y97.64 E6.4621
G1 X131.411 Y97.759 E6.48769
G1 X132.154 Y97.957 E6.51326
G1 X132.873 Y98.231 E6.53885
G1 X133.559 Y98.578 E6.56442
G1 X134.206 Y98.994 E6.59001
G1 X134.806 Y99.475 E6.61558
G1 X135.116 Y99.767 E6.62975
G1 X135.233 Y99.884 E6.63525
G1 X135.747 Y100.456 E6.66083
G1 X136.2 Y101.078 E6.68642
G1 X136.586 Y101.743 E6.71199
G1 X136.901 Y102.445 E6.73759
G1 X137.141 Y103.176 E6.76318
G1 X137.304 Y103.927 E6.78874
G1 X137.388 Y104.692 E6.81433
G1 X137.4 Y105.117 E6.82847
G1 X137.4 Y114.883 E7.15329
G1 X137.36 Y115.651 E7.17887
G1 X137.241 Y116.411 E7.20446
G1 X137.043 Y117.154 E7.23003
G1 X136.769 Y117.873 E7.25562
G1 X136.422 Y118.559 E7.28119
G1 X136.006 Y119.206 E7.30678
G1 X135.525 Y119.806 E7.33235
G1 X135.233 Y120.116 E7.34652
G1 X135.116 Y120.233 E7.35202
G1 X134.544 Y120.747 E7.3776
G1 X133.922 Y121.2 E7.40319
G1 X133.257 Y121.586 E7.42877
G1 X132.555 Y121.901 E7.45436
G1 X131.824 Y122.141 E7.47995
G1 X131.073 Y122.304 E7.50551
G1 X130.308 Y122.388 E7.5311
G1 X129.883 Y122.4 E7.54524
G1 X90.117 Y122.4 E8.86787
G1 X89.349 Y122.36 E8.89345
G1 X88.589 Y122.241 E8.91903
G1 X87.846 Y122.043 E8.94461
G1 X87.127 Y121.769 E8.9702
G1 X86.441 Y121.422 E8.99577
G1 X85.794 Y121.006 E9.02135
G1 X85.194 Y120.525 E9.04693
G1 X84.884 Y120.233 E9.06109
G1 X84.767 Y120.116 E9.0666
G1 X84.253 Y119.544 E9.09217
G1 X83.8 Y118.922 E9.11777
G1 X83.414 Y118.257 E9.14334
G1 X83.099 Y117.555 E9.16893
G1 X82.859 Y116.824 E9.19452
G1 X82.696 Y116.073 E9.22008
G1 X82.612 Y115.308 E9.24568
G1 X82.6 Y114.883 E9.25982
G1 X82.6 Y105.117 E9.58464
G1 X82.64 Y104.349 E9.61022
G1 X82.759 Y103.589 E9.6358
G1 X82.957 Y102.846 E9.66138
G1 X83.231 Y102.127 E9.68697
G1 X83.578 Y101.441 E9.71254
G1 X83.994 Y100.794 E9.73812
G1 X84.475 Y100.194 E9.7637
G1 X84.767 Y99.884 E9.77786
G1 X84.884 Y99.767 E9.78337
G1 X85.456 Y99.253 E9.80894
G0 F6000 X85.724 Y99.55
G1 F1200 X86.33 Y99.113 E9.83379
G1 X86.98 Y98.742 E9.85869
G1 X87.666 Y98.443 E9.88358
G1 X88.38 Y98.219 E9.90846
G1 X89.113 Y98.072 E9.93333
G1 X90.117 Y98 E9.96681
G1 X129.883 Y98 E11.28943
G1 X130.63 Y98.04 E11.31431
G1 X131.368 Y98.159 E11.33918
G1 X132.09 Y98.357 E11.36408
G1 X132.786 Y98.63 E11.38894
G1 X133.449 Y98.977 E11.41383
G1 X134.072 Y99.392 E11.43873
G1 X134.833 Y100.05 E11.47219
G1 X134.95 Y100.167 E11.47769
G1 X135.45 Y100.724 E11.50259
G1 X135.887 Y101.33 E11.52744
G1 X136.258 Y101.98 E11.55233
G1 X136.557 Y102.666 E11.57722
G1 X136.781 Y103.38 E11.60211
G1 X136.928 Y104.113 E11.62697
G1 X137 Y105.117 E11.66045
G1 X137 Y114.883 E11.98527
G1 X136.96 Y115.63 E12.01015
G1 X136.841 Y116.368 E12.03501
G1 X136.643 Y117.09 E12.05992
G1 X136.37 Y117.786 E12.08478
G1 X136.023 Y118.449 E12.10967
G1 X135.608 Y119.072 E12.13457
G1 X134.95 Y119.833 E12.16803
G1 X134.833 Y119.95 E12.17353
G1 X134.276 Y120.45 E12.19843
G1 X133.67 Y120.887 E12.22328
G1 X133.02 Y121.258 E12.24817
G1 X132.334 Y121.557 E12.27306
G1 X131.62 Y121.781 E12.29795
G1 X130.887 Y121.928 E12.32281
G1 X129.883 Y122 E12.35629
G1 X90.117 Y122 E13.67891
G1 X89.37 Y121.96 E13.7038
G1 X88.632 Y121.841 E13.72866
G1 X87.91 Y121.643 E13.75356
G1 X87.214 Y121.37 E13.77842
G1 X86.551 Y121.023 E13.80331
G1 X85.928 Y120.608 E13.82821
G1 X85.167 Y119.95 E13.86167
G1 X85.05 Y119.833 E13.86718
G1 X84.55 Y119.276 E13.89207
G1 X84.113 Y118.67 E13.91692
G1 X83.742 Y118.02 E13.94181
G1 X83.443 Y117.334 E13.9667
G1 X83.219 Y116.62 E13.99159
G1 X83.072 Y115.887 E14.01646
G1 X83 Y114.883 E14.04994
G1 X83 Y105.117 E14.37475
G1 X83.04 Y104.37 E14.39963
G1 X83.159 Y103.632 E14.4245
G1 X83.357 Y102.91 E14.4494
G1 X83.63 Y102.214 E14.47426
G1 X83.977 Y101.551 E14.49915
G1 X84.392 Y100.928 E14.52405
G1 X85.05 Y100.167 E14.55751
G1 X85.167 Y100.05 E14.56301
G1 X85.724 Y99.55 E14.58791
G0 F6000 X85.991 Y99.849
G1 F1200 X86.582 Y99.426 E14.61208
G1 X87.216 Y99.072 E14.63623
G1 X87.885 Y98.789 E14.66039
G1 X88.581 Y98.581 E14.68455
G1 X89.296 Y98.451 E14.70873
G1 X90.117 Y98.4 E14.73608
G1 X129.883 Y98.4 E16.05871
G1 X130.608 Y98.44 E16.08286
G1 X131.325 Y98.559 E16.10703
G1 X132.024 Y98.757 E16.1312
G1 X132.697 Y99.03 E16.15535
G1 X133.336 Y99.375 E16.1795
G1 X133.933 Y99.789 E16.20367
G1 X134.55 Y100.333 E16.23103
G1 X134.667 Y100.45 E16.23653
G1 X135.151 Y100.991 E16.26067
G1 X135.574 Y101.582 E16.28485
G1 X135.928 Y102.216 E16.309
G1 X136.211 Y102.885 E16.33316
G1 X136.419 Y103.581 E16.35732
G1 X136.549 Y104.296 E16.38149
G1 X136.6 Y105.117 E16.40885
G1 X136.6 Y114.883 E16.73367
G1 X136.56 Y115.608 E16.75782
G1 X136.441 Y116.325 E16.78199
G1 X136.243 Y117.024 E16.80615
G1 X135.97 Y117.697 E16.83031
G1 X135.625 Y118.336 E16.85446
G1 X135.211 Y118.933 E16.87863
G1 X134.667 Y119.55 E16.90599
G1 X134.55 Y119.667 E16.91149
G1 X134.009 Y120.151 E16.93563
G1 X133.418 Y120.574 E16.9598
G1 X132.784 Y120.928 E16.98396
G1 X132.115 Y121.211 E17.00812
G1 X131.419 Y121.419 E17.03228
G1 X130.704 Y121.549 E17.05645
G1 X129.883 Y121.6 E17.08381
G1 X90.117 Y121.6 E18.40643
G1 X89.392 Y121.56 E18.43058
G1 X88.675 Y121.441 E18.45475
G1 X87.976 Y121.243 E18.47892
G1 X87.303 Y120.97 E18.50307
G1 X86.664 Y120.625 E18.52723
G1 X86.067 Y120.211 E18.55139
G1 X85.45 Y119.667 E18.57875
G1 X85.333 Y119.55 E18.58425
G1 X84.849 Y119.009 E18.6084
G1 X84.426 Y118.418 E18.63257
G1 X84.072 Y117.784 E18.65672
G1 X83.789 Y117.115 E18.68088
G1 X83.581 Y116.419 E18.70504
G1 X83.451 Y115.704 E18.72921
G1 X83.4 Y114.883 E18.75657
G1 X83.4 Y105.117 E19.08139
G1 X83.44 Y104.392 E19.10554
G1 X83.559 Y103.675 E19.12971
G1 X83.757 Y102.976 E19.15388
G1 X84.03 Y102.303 E19.17803
G1 X84.375 Y101.664 E19.20218
G1 X84.789 Y101.067 E19.22635
G1 X85.333 Y100.45 E19.25371
G1 X85.45 Y100.333 E19.25921
G1 X85.991 Y99.849 E19.28335
G0 F6000 X86.258 Y100.147
G1 F1200 X86.833 Y99.741 E19.30677
G1 X87.451 Y99.403 E19.33019
G1 X88.102 Y99.136 E19.3536
G1 X88.78 Y98.946 E19.37702
G1 X89.475 Y98.833 E19.40044
G1 X90.117 Y98.8 E19.42182
G1 X129.883 Y98.8 E20.74444
G1 X130.586 Y98.84 E20.76786
G1 X131.28 Y98.959 E20.79128
G1 X131.955 Y99.157 E20.81467
G1 X132.604 Y99.429 E20.83808
G1 X133.218 Y99.774 E20.8615
G1 X133.789 Y100.185 E20.8849
G1 X134.267 Y100.616 E20.90631
G1 X134.384 Y100.733 E20.91181
G1 X134.853 Y101.258 E20.93523
G1 X135.259 Y101.833 E20.95864
G1 X135.597 Y102.451 E20.98207
G1 X135.864 Y103.102 E21.00547
G1 X136.054 Y103.78 E21.02889
G1 X136.167 Y104.475 E21.05231
G1 X136.2 Y105.117 E21.07369
G1 X136.2 Y114.883 E21.39851
G1 X136.16 Y115.586 E21.42193
G1 X136.041 Y116.28 E21.44535
G1 X135.843 Y116.955 E21.46874
G1 X135.571 Y117.604 E21.49215
G1 X135.226 Y118.218 E21.51557
G1 X134.815 Y118.789 E21.53897
G1 X134.384 Y119.267 E21.56038
G1 X134.267 Y119.384 E21.56588
G1 X133.742 Y119.853 E21.5893
G1 X133.167 Y120.259 E21.61271
G1 X132.549 Y120.597 E21.63614
G1 X131.898 Y120.864 E21.65954
G1 X131.22 Y121.054 E21.68296
G1 X130.525 Y121.167 E21.70638
G1 X129.883 Y121.2 E21.72776
G1 X90.117 Y121.2 E23.05038
G1 X89.414 Y121.16 E23.0738
G1 X88.72 Y121.041 E23.09722
G1 X88.045 Y120.843 E23.12062
G1 X87.396 Y120.571 E23.14402
G1 X86.782 Y120.226 E23.16745
G1 X86.211 Y119.815 E23.19085
G1 X85.733 Y119.384 E23.21225
G1 X85.616 Y119.267 E23.21776
G1 X85.147 Y118.742 E23.24117
G1 X84.741 Y118.167 E23.26458
G1 X84.403 Y117.549 E23.28801
G1 X84.136 Y116.898 E23.31141
G1 X83.946 Y116.22 E23.33483
G1 X83.833 Y115.525 E23.35825
G1 X83.8 Y114.883 E23.37963
G1 X83.8 Y105.117 E23.70445
G1 X83.84 Y104.414 E23.72787
G1 X83.959 Y103.72 E23.75129
G1 X84.157 Y103.045 E23.77469
G1 X84.429 Y102.396 E23.79809
G1 X84.774 Y101.782 E23.82152
G1 X85.185 Y101.211 E23.84492
G1 X85.616 Y100.733 E23.86632
G1 X85.733 Y100.616 E23.87183
G1 X86.258 Y100.147 E23.89524
G0 F6000 X86.525 Y100.446
G1 F1200 X87.083 Y100.057 E23.91787
G1 X87.683 Y99.735 E23.94051
G1 X88.317 Y99.486 E23.96317
G1 X88.976 Y99.313 E23.98583
G1 X89.65 Y99.219 E24.00847
G1 X90.117 Y99.2 E24.02401
G1 X129.883 Y99.2 E25.34663
G1 X130.563 Y99.24 E25.36929
G1 X131.233 Y99.359 E25.39192
G1 X131.885 Y99.556 E25.41458
G1 X132.509 Y99.828 E25.43722
G1 X133.097 Y100.172 E25.45987
G1 X133.641 Y100.582 E25.48253
G1 X133.984 Y100.899 E25.49807
G1 X134.101 Y101.016 E25.50357
G1 X134.554 Y101.525 E25.52623
G1 X134.943 Y102.083 E25.54886
G1 X135.265 Y102.683 E25.5715
G1 X135.514 Y103.317 E25.59416
G1 X135.687 Y103.976 E25.61682
G1 X135.781 Y104.65 E25.63945
G1 X135.8 Y105.117 E25.655
G1 X135.8 Y114.883 E25.97982
G1 X135.76 Y115.563 E26.00247
G1 X135.641 Y116.233 E26.02511
G1 X135.444 Y116.885 E26.04776
G1 X135.172 Y117.509 E26.0704
G1 X134.828 Y118.097 E26.09306
G1 X134.418 Y118.641 E26.11572
G1 X134.101 Y118.984 E26.13125
G1 X133.984 Y119.101 E26.13675
G1 X133.475 Y119.554 E26.15942
G1 X132.917 Y119.943 E26.18204
G1 X132.317 Y120.265 E26.20469
G1 X131.683 Y120.514 E26.22734
G1 X131.024 Y120.687 E26.25
G1 X130.35 Y120.781 E26.27264
G1 X129.883 Y120.8 E26.28818
G1 X90.117 Y120.8 E27.61081
G1 X89.437 Y120.76 E27.63346
G1 X88.767 Y120.641 E27.6561
G1 X88.115 Y120.444 E27.67875
G1 X87.491 Y120.172 E27.70139
G1 X86.903 Y119.828 E27.72405
G1 X86.359 Y119.418 E27.7467
G1 X86.016 Y119.101 E27.76224
G1 X85.899 Y118.984 E27.76774
G1 X85.446 Y118.475 E27.79041
G1 X85.057 Y117.917 E27.81303
G1 X84.735 Y117.317 E27.83568
G1 X84.486 Y116.683 E27.85833
G1 X84.313 Y116.024 E27.88099
G1 X84.219 Y115.35 E27.90363
G1 X84.2 Y114.883 E27.91917
G1 X84.2 Y105.117 E28.24399
G1 X84.24 Y104.437 E28.26665
G1 X84.359 Y103.767 E28.28928
G1 X84.556 Y103.115 E28.31193
G1 X84.828 Y102.491 E28.33458
G1 X85.172 Y101.903 E28.35723
G1 X85.582 Y101.359 E28.37989
G1 X85.899 Y101.016 E28.39542
G1 X86.016 Y100.899 E28.40093
G1 X86.525 Y100.446 E28.42359
G0 F6000 X86.791 Y100.746
G1 F1200 X87.332 Y100.374 E28.44543
G1 X87.914 Y100.07 E28.46727
G1 X88.529 Y99.839 E28.48912
G1 X89.168 Y99.684 E28.51099
G1 X90.117 Y99.6 E28.54267
G1 X129.883 Y99.6 E29.8653
G1 X130.539 Y99.64 E29.88716
G1 X131.185 Y99.759 E29.909
G1 X131.812 Y99.956 E29.93086
G1 X132.41 Y100.228 E29.95271
G1 X132.971 Y100.57 E29.97457
G1 X133.701 Y101.182 E30.00625
G1 X133.818 Y101.299 E30.01175
G1 X134.254 Y101.791 E30.03362
G1 X134.626 Y102.332 E30.05545
G1 X134.93 Y102.914 E30.07729
G1 X135.161 Y103.529 E30.09914
G1 X135.316 Y104.168 E30.12101
G1 X135.4 Y105.117 E30.1527
G1 X135.4 Y114.883 E30.47752
G1 X135.36 Y115.539 E30.49938
G1 X135.241 Y116.185 E30.52123
G1 X135.044 Y116.812 E30.54308
G1 X134.772 Y117.41 E30.56494
G1 X134.43 Y117.971 E30.58679
G1 X133.818 Y118.701 E30.61847
G1 X133.701 Y118.818 E30.62397
G1 X133.209 Y119.254 E30.64584
G1 X132.668 Y119.626 E30.66768
G1 X132.086 Y119.93 E30.68952
G1 X131.471 Y120.161 E30.71137
G1 X130.832 Y120.316 E30.73324
G1 X129.883 Y120.4 E30.76492
G1 X90.117 Y120.4 E32.08755
G1 X89.461 Y120.36 E32.1094
G1 X88.815 Y120.241 E32.13125
G1 X88.188 Y120.044 E32.15311
G1 X87.59 Y119.772 E32.17496
G1 X87.029 Y119.43 E32.19681
G1 X86.299 Y118.818 E32.2285
G1 X86.182 Y118.701 E32.234
G1 X85.746 Y118.209 E32.25587
G1 X85.374 Y117.668 E32.2777
G1 X85.07 Y117.086 E32.29954
G1 X84.839 Y116.471 E32.32139
G1 X84.684 Y115.832 E32.34326
G1 X84.6 Y114.883 E32.37495
G1 X84.6 Y105.117 E32.69977
G1 X84.64 Y104.461 E32.72163
G1 X84.759 Y103.815 E32.74347
G1 X84.956 Y103.188 E32.76533
G1 X85.228 Y102.59 E32.78718
G1 X85.57 Y102.029 E32.80904
G1 X86.182 Y101.299 E32.84072
G1 X86.299 Y101.182 E32.84622
G1 X86.791 Y100.746 E32.86809
G0 F6000 X87.056 Y101.047
G1 F1200 X87.579 Y100.692 E32.88911
G1 X88.143 Y100.406 E32.91015
G1 X88.738 Y100.194 E32.93115
G1 X89.356 Y100.058 E32.9522
G1 X90.117 Y100 E32.97758
G1 X129.883 Y100 E34.30021
G1 X130.514 Y100.04 E34.32124
G1 X131.135 Y100.159 E34.34227
G1 X131.735 Y100.356 E34.36327
G1 X132.307 Y100.627 E34.38432
G1 X132.839 Y100.967 E34.40532
G1 X133.419 Y101.464 E34.43073
G1 X133.536 Y101.581 E34.43623
G1 X133.953 Y102.056 E34.45725
G1 X134.308 Y102.579 E34.47828
G1 X134.594 Y103.143 E34.49931
G1 X134.806 Y103.738 E34.52032
G1 X134.942 Y104.356 E34.54136
G1 X135 Y105.117 E34.56675
G1 X135 Y114.883 E34.89157
G1 X134.96 Y115.514 E34.9126
G1 X134.841 Y116.135 E34.93363
G1 X134.644 Y116.735 E34.95463
G1 X134.373 Y117.307 E34.97568
G1 X134.033 Y117.839 E34.99668
G1 X133.536 Y118.419 E35.02209
G1 X133.419 Y118.536 E35.02759
G1 X132.944 Y118.953 E35.04861
G1 X132.421 Y119.308 E35.06964
G1 X131.857 Y119.594 E35.09067
G1 X131.262 Y119.806 E35.11168
G1 X130.644 Y119.942 E35.13273
G1 X129.883 Y120 E35.15811
G1 X90.117 Y120 E36.48073
G1 X89.486 Y119.96 E36.50176
G1 X88.865 Y119.841 E36.52279
G1 X88.265 Y119.644 E36.5438
G1 X87.693 Y119.373 E36.56485
G1 X87.161 Y119.033 E36.58585
G1 X86.581 Y118.536 E36.61125
G1 X86.464 Y118.419 E36.61675
G1 X86.047 Y117.944 E36.63778
G1 X85.692 Y117.421 E36.6588
G1 X85.406 Y116.857 E36.67983
G1 X85.194 Y116.262 E36.70084
G1 X85.058 Y115.644 E36.72189
G1 X85 Y114.883 E36.74727
G1 X85 Y105.117 E37.07209
G1 X85.04 Y104.486 E37.09312
G1 X85.159 Y103.865 E37.11415
